X: 1
T:Murphy Delaney. HSJJ.140
M:6/8
L:1/8
S:HSJ Jackson,Wyresdale,Lancs.1823
R:Jig
O:England
A:Lancashire
H:1823
Z:Chris Partington.
K:C
c>dce2d|cdc {ef}g2e|c>dc efg|abc' d'bg|c>dc e2d|!c>dc gab|c'ba gfe|d>ed
d
BG:|
|:efg gag|gag gfe|!fga aba|aba agf|efg gag|gag gab|c'ba gfe|d>ed dBG:|]
